X:737
T:Reel 737
M:4/4
K:Cmaj
L:1/8
D|EGCG EGCG|FDB,C DEFD|EG,CD EFGE|FAGF ECCF|EDCD EFGE|FAGF DCB,D|EDCD EFGc|BGFD ECC|f|edcd ecdc|dggf dcBA|GBcd e2ec|dggf dccd|edcd ecge|dcBc defd|edcB cedc|BGFD ECC|
